X:1
T:Госуда́рственный гимн Росси́йской Федера́ции
T:Гимн России
T:Russlands nasjonalsang
T:A. Aleksandrov
C:Alexander Alexandrov
%%score ( 1 2 ) { ( 3 5 ) | ( 4 6 ) }
L:1/8
Q:1/4=76
M:4/4
K:C
V:1 treble nm="Vokal"
V:2 treble 
V:3 treble nm="Piano"
V:5 treble 
V:4 bass 
V:6 bass 
V:1
 z4 z2 z G | c2 G3/2 A/ B2 E E | A2 G3/2 F/ G2 C3/2 C/ | D2 D3/2 E/ F2 F3/2 G/ | A2 B3/2 c/ d3 G | %5
w: Рос-|си- я— свя- щен- на- я|на- ша дер- жа- ва, Рос-|си- я— лю- би- ма- я|на- ша стра- на. Мо-|
 e2 d3/2 c/ d2 B G | c2 B3/2 A/ B2 E E | A2 G3/2 F/ G2 C3/2 C/ | c2 B3/2 A/ G4 | e4 (dc) (Bc) | %10
w: гу- ча- я вол- я, ве-|ли- ка- я сла- ва— Тво-|ё до- сто- я- нье на|все вре- ме- на!|Славь- ся _ О _|
 d3 G G4 | c4 (BA) (GA) | B3 E E2 z2 | c2 A3/2 B/ c2 A3/2 B/ | c2 A c f2- f z | f4 (ed) (cd) | %16
w: те- чест- во|на- ше _ сво _|вод- но- е,|Брат- ских на- ро- дов со-|юз ве- ко- вой, _|Пред- ка _ ми _|
 e3 c c4 | d4 (cB) (AB) | c3 A A4 | c2 B3/2 A/ G2 C3/2 C/ | G4 A2 B2 | c4- c z z2 |] %22
w: дан- на- я|муд- рост _ на _|род- на- я!|Славь- ся, стра- на! Мы гор-|дим- ся то-|бой! _|
V:2
 x8 | x8 | x8 | x8 | x7 G | c2 G3/2 A/ B2 B G | A2 E3/2 ^F/ G2 E E | A2 G3/2 F/ G2 C3/2 C/ | %8
 D2 E3/2 ^F/ G4 | c4 (BA) (GA) | B3 G G4 | A4 (G^F) (EF) | G3 E E2 x2 | A2 F3/2 G/ A2 F3/2 G/ | %14
 A2 F A F2- F x | [DA]4 [GB]2 (AB) | c3 c c4 | [FA]4 [E^G]2 (^FG) | A3 A A4 | %19
 A2 G3/2 F/ G2 C3/2 C/ | G4 A2 B2 | c4- c x3 |] %22
V:3
 [CEGc]6 z G | [CEGc]2 G>A [B,EGB]2 E>E | [A,CA]2 G>F [G,CG]2 C>C | %3
 [F,A,D]2 D>E [A,DF]2 [A,DF]>[A,EG] | [A,FA]2 [B,GB]>[CGAc] [DGB]3 G | %5
 [EGce]2 [Dd]>[CAc] [DGBd]2 G>G | [CEAc]2 [B,B]>[A,^FA] [B,EGB]2 E>E | [A,CA]2 G>F [G,CG]2 C>C | %8
 [C^Fc]2 [CEB]>[CFA] [B,G][B,GB][CAc][DBd] | [EGce]4 [DBd][CAc][B,GB][CAc] | %10
 [DGBd]3 [B,DG] [B,DG][B,GB][CAc][DBd] | [CEAc]4 [B,GB][A,^FA][G,EG][A,FA] | %12
 [B,EGB]3 [G,B,E] [G,B,E][G,EG][A,C=FA][B,GB] | [Ac]2 [FA]>[GB] [Ac]2 [FA]>[GB] | %14
 [CAc]2 [CFA]>[CAc] [FAcf]4 | f4 edcd | [EGce]3 [EGc] [EGc]4 | d4 cB[^FA][E^GB] | %18
 [CEAc]3 [CEA] [CEA]4 | [Ac]2 [GB]>[FA] [CG]2 C>C | [G,B,FG]4 [A,CGA]2 [B,FGB]2 | %21
 [CEGc]4- [CEGc] z z2 |] %22
V:4
 !///-!C,,2 C,2 C,,2 z2 | [C,,C,]2 [C,,C,]2 [E,,E,]2 [E,,E,]2 | %2
 [F,,F,]2 [F,,F,]2 [E,,E,]2 [E,,E,]2 | [D,,D,]2 [D,,D,]2 [C,,C,]4- | %4
 [C,,C,][C,,C,][B,,,B,,][A,,,A,,] [G,,,G,,][F,,F,][E,,E,][D,,D,] | [C,,C,]2 [E,,E,]2 G,D,B,,G,, | %6
 [A,,,A,,]2 [C,,C,]2 E,B,,G,,E,, | [F,,F,]2 [D,,D,]2 [E,,E,]2 [E,,E,]2 | %8
 [D,,D,]2 [D,,D,]2 [G,,G,][=F,,=F,][E,,E,][D,,D,] | %9
 [C,,C,][B,,,B,,][C,,C,][D,,D,] [E,,E,]2 [E,,E,]2 | G,4- [G,,G,]2 [F,,F,][E,,E,] | %11
 A,,E,, [A,,,A,,][B,,,B,,] [C,,C,]2 [C,,C,]2 | E,4- [E,,E,][E,,E,][D,,D,][G,,,G,,] | %13
 [F,,,F,,]3 [C,,C,] [A,,A,]2- [A,,A,][G,,G,] | [F,,F,]3 [C,,C,] [A,,A,][G,,G,][F,,F,][E,,E,] | %15
 [D,,D,]3 [E,,E,]/[F,,F,]/ [G,,G,]2 [G,,,G,,]2 | %16
 [C,,C,][B,,,B,,][C,,C,][E,,E,] [D,,D,][C,,C,][B,,,B,,][A,,,A,,] | %17
 [B,,,B,,]3 [C,,C,]/[D,,D,]/ [E,,E,]2 [E,,E,]2 | %18
 [A,,,A,,][B,,,B,,][C,,C,][E,,E,] [A,,A,]2 [G,,G,]2 | [F,,F,]2 [D,,D,]2 [E,,E,]2 [E,,E,]2 | %20
 [G,,,G,,]4 [G,,,G,,]2 [G,,,G,,]2 | [C,,C,]4- [C,,C,] z z2 |] %22
V:5
 x8 | x2 [CE]2 x2 [G,B,]2 | x2 [A,C]2 x2 G,2 | x2 [F,A,]2 x4 | x8 | x2 G2 x2 [B,D]2 | %6
 x2 E2 x2 [G,B,]2 | x2 [A,C]2 x2 G,2 | x8 | x8 | x8 | x8 | x8 | C2 C2 C2 C2 | x8 | %15
 [FAc]2 [FAc]2 [GB]2 [FA]2 | x8 | [DFA]2 [DFA]2 [E^G]2 D2 | x8 | C2 x2 G,2 G,2 | x8 | x8 |] %22
V:6
 x8 | x8 | x8 | x8 | x8 | x4 G,,3 G,, | x4 E,,3 E,, | x8 | x8 | x8 | G,,G,,B,,D, x4 | A,,,2 x6 | %12
 E,,E,,G,,B,, x4 | x8 | x8 | x8 | x8 | x8 | x8 | x8 | x8 | x8 |] %22

